X: 10496
T: Donnybrook Fair
R: jig
M: 6/8
K: Gmajor
D|:GFG AGA|Bee dBA|BAB GAB|AGE EDE|
~G3 AGA|Bee dBA|BAB GAB|1 AGF G2D:|2 AGF G2f:|
gfe fed|ege dBA|Bee dBA|Bee e2f|
[1gfe fed|e/f/ge dBA|BAB GAB|AGF G2f:|
[2gfg aga|bge dBA|BAB GAB|AGF G3||

